SVG_Azure_Grouped/Management/Azure LightHouse My Audit History.svg

<?xml version="1.0" encoding="UTF-8" standalone="no"?>
<!-- Generated by Microsoft Visio, SVG Export Azure LightHouse My Audit History.svg Page-1 -->

<svg
   xmlns:dc="http://purl.org/dc/elements/1.1/"
   xmlns:cc="http://creativecommons.org/ns#"
   xmlns:rdf="http://www.w3.org/1999/02/22-rdf-syntax-ns#"
   xmlns:svg="http://www.w3.org/2000/svg"
   xmlns="http://www.w3.org/2000/svg"
   xmlns:sodipodi="http://sodipodi.sourceforge.net/DTD/sodipodi-0.dtd"
   xmlns:inkscape="http://www.inkscape.org/namespaces/inkscape"
   width="0.70869637in"
   height="0.7874642in"
   viewBox="0 0 51.02619 56.69771"
   xml:space="preserve"
   class="st8"
   version="1.1"
   id="svg54"
   sodipodi:docname="Azure LightHouse My Audit History.svg"
   style="font-size:12px;overflow:visible;color-interpolation-filters:sRGB;fill:none;fill-rule:evenodd;stroke-linecap:square;stroke-miterlimit:3"
   inkscape:version="0.92.5 (2060ec1f9f, 2020-04-08)"><metadata
   id="metadata60"><rdf:RDF><cc:Work
       rdf:about=""><dc:format>image/svg+xml</dc:format><dc:type
         rdf:resource="http://purl.org/dc/dcmitype/StillImage" /></cc:Work></rdf:RDF></metadata><defs
   id="defs58" /><sodipodi:namedview
   pagecolor="#ffffff"
   bordercolor="#666666"
   borderopacity="1"
   objecttolerance="10"
   gridtolerance="10"
   guidetolerance="10"
   inkscape:pageopacity="0"
   inkscape:pageshadow="2"
   inkscape:window-width="640"
   inkscape:window-height="480"
   id="namedview56"
   showgrid="false"
   inkscape:zoom="1.7193066"
   inkscape:cx="34.01556"
   inkscape:cy="23.279613"
   inkscape:window-x="0"
   inkscape:window-y="0"
   inkscape:window-maximized="0"
   inkscape:current-layer="svg54" />
	<style
   type="text/css"
   id="style2">
	<![CDATA[
		.st1 {fill:#57a300;stroke:none;stroke-linecap:butt;stroke-width:12.24}
		.st2 {fill:#1e1e1e;fill-opacity:0.15;stroke:none;stroke-linecap:butt;stroke-width:12.24}
		.st3 {fill:#e5e5e5;fill-opacity:0.2;stroke:none;stroke-linecap:butt;stroke-width:12.24}
		.st4 {fill:#ffffff;stroke:none;stroke-linecap:butt;stroke-width:12.24}
		.st5 {fill:#a0a1a2;fill-opacity:0.5;stroke:none;stroke-linecap:butt;stroke-width:12.24}
		.st6 {fill:#ffffff;fill-opacity:0.4;stroke:none;stroke-linecap:butt;stroke-width:12.24}
		.st7 {fill:#3999c6;stroke:none;stroke-linecap:butt;stroke-width:12.24}
		.st8 {fill:none;fill-rule:evenodd;font-size:12px;overflow:visible;stroke-linecap:square;stroke-miterlimit:3}
	]]>
	</style>

	<g
   id="g52"
   transform="translate(-12.240154,-12.23659)">
		<title
   id="title4">Page-1</title>
		<g
   id="group12816-1"
   transform="translate(12.24,-34.0157)">
			<title
   id="title6">Azure LightHouse My Audit History.12816</title>
			<g
   id="group12817-2">
				<title
   id="title8">g20</title>
				<g
   id="shape12818-3"
   transform="translate(0,-8.44363)">
					<title
   id="title10">path4</title>
					<path
   d="m 41.78,98.48 h 1.95 V 54.7 H 3.88 C 2.62,54.86 0,57.88 0,58.32 l 0.06,42.35 c 0,1.26 1.03,2.28 2.3,2.28 h 36.51 v -0.7 z"
   class="st1"
   id="path12"
   inkscape:connector-curvature="0"
   style="fill:#57a300;stroke:none;stroke-width:12.23999977;stroke-linecap:butt" />
				</g>
				<g
   id="shape12819-5"
   transform="translate(0,-8.44363)">
					<title
   id="title15">path6</title>
					<path
   d="m 41.78,98.48 h 1.95 V 54.7 H 3.88 C 2.62,54.86 0,57.88 0,58.32 l 0.06,42.35 c 0,1.26 1.03,2.28 2.3,2.28 h 36.51 v -0.7 z"
   class="st2"
   id="path17"
   inkscape:connector-curvature="0"
   style="fill:#1e1e1e;fill-opacity:0.15;stroke:none;stroke-width:12.23999977;stroke-linecap:butt" />
				</g>
				<g
   id="shape12820-7"
   transform="translate(0,-9.15771)">
					<title
   id="title20">path8</title>
					<path
   d="M 6.47,55.41 H 3.88 C 2.62,55.58 0,58.6 0,59.03 v 1.21 h 38.88 v 42.71 l 2.9,-3.76 h 1.95 V 55.41 Z"
   class="st3"
   id="path22"
   inkscape:connector-curvature="0"
   style="fill:#e5e5e5;fill-opacity:0.2;stroke:none;stroke-width:12.23999977;stroke-linecap:butt" />
				</g>
				<g
   id="shape12821-9"
   transform="translate(0.964589,-9.14686)">
					<title
   id="title25">path10</title>
					<path
   d="m 4.65,57.33 c -1.08,0 -1.54,0.18 -2.44,0.97 -2.21,1.93 0.38,1.93 1.45,1.93 H 37.9 v 42.72 l 2.92,-3.77 V 57.33 Z"
   class="st4"
   id="path27"
   inkscape:connector-curvature="0"
   style="fill:#ffffff;stroke:none;stroke-width:12.23999977;stroke-linecap:butt" />
				</g>
				<g
   id="shape12822-11"
   transform="translate(38.8679,-9.14686)">
					<title
   id="title30">path12</title>
					<path
   d="M 0,102.95 2.92,99.18 V 57.33 L 0,60.23 Z"
   class="st5"
   id="path32"
   inkscape:connector-curvature="0"
   style="fill:#a0a1a2;fill-opacity:0.5;stroke:none;stroke-width:12.23999977;stroke-linecap:butt" />
				</g>
				<g
   id="shape12823-13"
   transform="translate(27.9415,-8.10226)">
					<title
   id="title35">path14</title>
					<path
   d="m 10.93,102.95 4.86,-4.47 V 77.23 a 8.49908,8.4388 -180 0 0 -3.64,-0.82 c -4.62,0 -8.38,3.64 -8.38,8.1 0,3.21 1.94,5.98 4.74,7.29 v 1.42 L 8.33,92.96 H 1.82 A 1.82227,1.80935 -180 0 0 0,94.77 v 8.18 z"
   class="st6"
   id="path37"
   inkscape:connector-curvature="0"
   style="fill:#ffffff;fill-opacity:0.4;stroke:none;stroke-width:12.23999977;stroke-linecap:butt" />
				</g>
				<g
   id="shape12824-15"
   transform="translate(29.1564)">
					<title
   id="title40">path16</title>
					<path
   d="m 18.1,76.41 c 0,3.81 -3.21,6.9 -7.17,6.9 -3.96,0 -7.16,-3.09 -7.16,-6.9 0,-3.81 3.2,-6.89 7.16,-6.89 3.96,0 7.17,3.08 7.17,6.89 z m -2.69,9.65 -4.48,6.85 -4.47,-6.85 H 0 v 16.89 H 21.87 V 86.06 Z"
   class="st7"
   id="path42"
   inkscape:connector-curvature="0"
   style="fill:#3999c6;stroke:none;stroke-width:12.23999977;stroke-linecap:butt" />
				</g>
				<g
   id="shape12825-17"
   transform="translate(5.39667,-16.8873)">
					<title
   id="title45">path18</title>
					<path
   d="m 11.61,78.82 h 13.36 v 2.42 H 11.61 Z m 0,9.65 h 13.36 v 2.42 H 11.61 Z m 0,9.65 h 13.36 v 2.42 H 11.61 Z M 0.68,87.27 v 6.03 h 6.07 v -6.03 z m 4.55,4.52 H 2.2 v -3.01 h 3.03 z m -4.55,5.13 v 6.03 h 6.07 v -6.03 z m 4.55,4.52 H 2.2 V 98.43 H 5.23 Z M 3.71,82.4 0.11,78.78 A 0.364454,0.36187 0 0 1 0.11243,78.268558 L 0.89,77.5 a 0.364454,0.36187 0 0 1 0.515096,0.0024 L 3.66,79.78 7.13,75.35 A 0.364454,0.36187 0 0 1 7.642666,75.28607 L 8.5,75.95 a 0.364454,0.36187 0 0 1 0.064387,0.507824 L 3.93,82.39 a 0.145782,0.144748 0 0 1 -0.219888,0.01206 z"
   class="st4"
   id="path47"
   inkscape:connector-curvature="0"
   style="fill:#ffffff;stroke:none;stroke-width:12.23999977;stroke-linecap:butt" />
				</g>
			</g>
		</g>
	</g>
</svg>

<?xml version="1.0" encoding="UTF-8" standalone="no"?>
<!DOCTYPE svg PUBLIC "-//W3C//DTD SVG 1.1//EN" "http://www.w3.org/Graphics/SVG/1.1/DTD/svg11.dtd">
<!-- Generated by Microsoft Visio, SVG Export Azure LightHouse My Audit History.svg Page-1 -->
<svg xmlns="http://www.w3.org/2000/svg" xmlns:xlink="http://www.w3.org/1999/xlink" xmlns:ev="http://www.w3.org/2001/xml-events"
		width="1.04866in" height="1.42984in" viewBox="0 0 75.5036 102.949" xml:space="preserve" color-interpolation-filters="sRGB"
		class="st8">
	<style type="text/css">
	<![CDATA[
		.st1 {fill:#57a300;stroke:none;stroke-linecap:butt;stroke-width:12.24}
		.st2 {fill:#1e1e1e;fill-opacity:0.15;stroke:none;stroke-linecap:butt;stroke-width:12.24}
		.st3 {fill:#e5e5e5;fill-opacity:0.2;stroke:none;stroke-linecap:butt;stroke-width:12.24}
		.st4 {fill:#ffffff;stroke:none;stroke-linecap:butt;stroke-width:12.24}
		.st5 {fill:#a0a1a2;fill-opacity:0.5;stroke:none;stroke-linecap:butt;stroke-width:12.24}
		.st6 {fill:#ffffff;fill-opacity:0.4;stroke:none;stroke-linecap:butt;stroke-width:12.24}
		.st7 {fill:#3999c6;stroke:none;stroke-linecap:butt;stroke-width:12.24}
		.st8 {fill:none;fill-rule:evenodd;font-size:12px;overflow:visible;stroke-linecap:square;stroke-miterlimit:3}
	]]>
	</style>

	<g>
		<title>Page-1</title>
		<g id="group12523-1" transform="translate(12.24,-34.0157)">
			<title>Azure LightHouse My Audit History.12523</title>
			<g id="group12524-2">
				<title>g20</title>
				<g id="shape12525-3" transform="translate(0,-8.44363)">
					<title>path4</title>
					<path d="M41.78 98.48 L43.73 98.48 L43.73 54.7 L3.88 54.7 C2.62 54.86 0 57.88 0 58.32 L0.06 100.67 C0.06 101.93
								 1.09 102.95 2.36 102.95 L38.87 102.95 L38.87 102.25 L41.78 98.48 Z" class="st1"/>
				</g>
				<g id="shape12526-5" transform="translate(0,-8.44363)">
					<title>path6</title>
					<path d="M41.78 98.48 L43.73 98.48 L43.73 54.7 L3.88 54.7 C2.62 54.86 0 57.88 0 58.32 L0.06 100.67 C0.06 101.93
								 1.09 102.95 2.36 102.95 L38.87 102.95 L38.87 102.25 L41.78 98.48 Z" class="st2"/>
				</g>
				<g id="shape12527-7" transform="translate(0,-9.15771)">
					<title>path8</title>
					<path d="M6.47 55.41 L3.88 55.41 C2.62 55.58 0 58.6 0 59.03 L0 60.24 L38.88 60.24 L38.88 102.95 L41.78 99.19
								 L43.73 99.19 L43.73 55.41 L6.47 55.41 Z" class="st3"/>
				</g>
				<g id="shape12528-9" transform="translate(0.964589,-9.14686)">
					<title>path10</title>
					<path d="M4.65 57.33 C3.57 57.33 3.11 57.51 2.21 58.3 C0 60.23 2.59 60.23 3.66 60.23 L37.9 60.23 L37.9 102.95
								 L40.82 99.18 L40.82 57.33 L4.65 57.33 Z" class="st4"/>
				</g>
				<g id="shape12529-11" transform="translate(38.8679,-9.14686)">
					<title>path12</title>
					<path d="M0 102.95 L2.92 99.18 L2.92 57.33 L0 60.23 L0 102.95 Z" class="st5"/>
				</g>
				<g id="shape12530-13" transform="translate(27.9415,-8.10226)">
					<title>path14</title>
					<path d="M10.93 102.95 L15.79 98.48 L15.79 77.23 A8.49908 8.4388 -180 0 0 12.15 76.41 C7.53 76.41 3.77 80.05
								 3.77 84.51 C3.77 87.72 5.71 90.49 8.51 91.8 L8.51 93.22 L8.33 92.96 L1.82 92.96 A1.82227 1.80935
								 -180 0 0 0 94.77 L0 102.95 L10.93 102.95 Z" class="st6"/>
				</g>
				<g id="shape12531-15" transform="translate(29.1564,0)">
					<title>path16</title>
					<path d="M18.1 76.41 C18.1 80.22 14.89 83.31 10.93 83.31 C6.97 83.31 3.77 80.22 3.77 76.41 C3.77 72.6 6.97 69.52
								 10.93 69.52 C14.89 69.52 18.1 72.6 18.1 76.41 ZM15.41 86.06 L10.93 92.91 L6.46 86.06 L0 86.06 L0
								 102.95 L21.87 102.95 L21.87 86.06 L15.41 86.06 Z" class="st7"/>
				</g>
				<g id="shape12532-17" transform="translate(5.39667,-16.8873)">
					<title>path18</title>
					<path d="M11.61 78.82 L24.97 78.82 L24.97 81.24 L11.61 81.24 L11.61 78.82 ZM11.61 88.47 L24.97 88.47 L24.97 90.89
								 L11.61 90.89 L11.61 88.47 ZM11.61 98.12 L24.97 98.12 L24.97 100.54 L11.61 100.54 L11.61 98.12 ZM0.68
								 87.27 L0.68 93.3 L6.75 93.3 L6.75 87.27 L0.68 87.27 ZM5.23 91.79 L2.2 91.79 L2.2 88.78 L5.23 88.78
								 L5.23 91.79 ZM0.68 96.92 L0.68 102.95 L6.75 102.95 L6.75 96.92 L0.68 96.92 ZM5.23 101.44 L2.2 101.44
								 L2.2 98.43 L5.23 98.43 L5.23 101.44 ZM3.71 82.4 L0.11 78.78 a0.364454 0.36187 0 0 1 0.0024297 -0.511442
								 L0.89 77.5 a0.364454 0.36187 0 0 1 0.515096 0.00241246 L3.66 79.78 L7.13 75.35 a0.364454 0.36187
								 0 0 1 0.512666 -0.0639303 L8.5 75.95 a0.364454 0.36187 0 0 1 0.064387 0.507824 L3.93 82.39 a0.145782
								 0.144748 0 0 1 -0.219888 0.0120623 Z" class="st4"/>
				</g>
			</g>
		</g>
	</g>
</svg>
